app/dist/common/images/the-olb-group.svg

<svg height="18" viewBox="0 0 18 18" width="18" xmlns="http://www.w3.org/2000/svg"><path d="m0 0h18v18h-18z" fill="#f0f3fa"/><path d="m13 5h-8v2.04a1.93 1.93 0 0 1 1.62.4v-.44h1.38v2.67h1.29v-2.67h2.36a1 1 0 0 1 0 2h.2a1 1 0 1 1 0 2h-5.23v-.44a1.93 1.93 0 0 1 -1.62.4v2.04h8zm-8 4.73a.76.76 0 0 0 .98-.73.76.76 0 0 0 -.98-.73zm6.12.27h-.4v-.67h.4a.33.33 0 0 1 0 .67zm-.4-1.33v-.67h.3a.33.33 0 1 1 0 .67z" fill="#eb2a2e"/></svg>

<!-- by TradingView --><svg xmlns="http://www.w3.org/2000/svg" width="18" height="18" viewBox="0 0 18 18"><path fill="#F0F3FA" d="M0 0h18v18H0z"/><path d="M13 5H5v2.04a1.93 1.93 0 0 1 1.62.4V7H8v2.67h1.29V7h2.36a1 1 0 0 1 0 2h.2a1 1 0 1 1 0 2H6.62v-.44a1.93 1.93 0 0 1-1.62.4V13h8V5zM5 9.73A.76.76 0 0 0 5.98 9 .76.76 0 0 0 5 8.27v1.46zm6.12.27h-.4v-.67h.4a.33.33 0 0 1 0 .67zm-.4-1.33V8h.3a.33.33 0 1 1 0 .67h-.3z" fill="#EB2A2E"/></svg>
